icon/lg/hexo.svg

<?xml version="1.0" encoding="UTF-8" standalone="no"?>
<svg viewBox="0 0 256 295" version="1.1" xmlns="http://www.w3.org/2000/svg" xmlns:xlink="http://www.w3.org/1999/xlink" preserveAspectRatio="xMidYMid" height="1em" width="1em">
  <g>
    <path d="M128.039402,0 L0.57527388,73.767737 L0.59086405,221.079121 L128.345359,294.54382 L255.809496,220.775108 L255.810992,73.5450946 L128.039436,0 L128.039402,0 Z" fill="#0E83CD"/>
    <path d="M68.2420989,211.051307 L68.2517061,147.350263 L68.2613133,83.649211 L79.8345383,76.8811382 L90.9201092,83.4410323 L91.0397043,109.471653 L91.1592937,135.502267 L128.19719,135.502267 L165.235086,135.502267 L165.354675,109.488752 L165.474253,83.4752311 L176.731827,76.9703326 L188.14418,83.649211 L188.138428,147.308095 L188.132675,210.966971 L176.834687,217.277779 L165.474011,210.885275 L165.354353,184.999602 L165.234683,159.113918 L128.196787,159.113918 L91.158891,159.113918 L91.0392326,184.992279 L91.0734618,211.000222 L79.7130159,217.662683 L68.2420989,211.051307 Z" fill="#FFFFFF"/>
  </g>
</svg>

<svg width="256" height="295" xmlns="http://www.w3.org/2000/svg" preserveAspectRatio="xMidYMid"><path d="M128.04 0 .574 73.768l.016 147.311 127.754 73.465 127.464-73.769.002-147.23L128.039 0Z" fill="#0E83CD"/><path d="m68.242 211.051.01-63.7.01-63.702 11.573-6.768 11.085 6.56.12 26.03.12 26.031H165.234l.12-26.013.12-26.014 11.257-6.505 11.412 6.68-.006 63.658-.005 63.659-11.298 6.31-11.361-6.392-.12-25.885-.12-25.886H91.16l-.12 25.878.034 26.008-11.36 6.663-11.47-6.612Z" fill="#FFF"/></svg>
